cursors/src/svg/draft.svg

<?xml version="1.0" encoding="UTF-8" standalone="no"?>
<!-- Created with Inkscape (http://www.inkscape.org/) -->

<svg
   xmlns:dc="http://purl.org/dc/elements/1.1/"
   xmlns:cc="http://creativecommons.org/ns#"
   xmlns:rdf="http://www.w3.org/1999/02/22-rdf-syntax-ns#"
   xmlns:svg="http://www.w3.org/2000/svg"
   xmlns="http://www.w3.org/2000/svg"
   xmlns:sodipodi="http://sodipodi.sourceforge.net/DTD/sodipodi-0.dtd"
   xmlns:inkscape="http://www.inkscape.org/namespaces/inkscape"
   width="32"
   height="32"
   viewBox="0 0 32 32.000001"
   id="svg2"
   version="1.1"
   inkscape:version="0.92.4 5da689c313, 2019-01-14"
   sodipodi:docname="draft.svg">
  <defs
     id="defs4">
    <filter
       style="color-interpolation-filters:sRGB"
       height="1.3239796"
       y="-0.16198979"
       width="1.3240204"
       x="-0.16201019"
       id="filter7834"
       inkscape:collect="always">
      <feGaussianBlur
         id="feGaussianBlur7836"
         stdDeviation="1.214916"
         inkscape:collect="always" />
    </filter>
    <filter
       style="color-interpolation-filters:sRGB"
       id="filter6888"
       inkscape:collect="always">
      <feGaussianBlur
         id="feGaussianBlur6890"
         stdDeviation="1.3970381"
         inkscape:collect="always" />
    </filter>
  </defs>
  <sodipodi:namedview
     id="base"
     pagecolor="#dcdcdc"
     bordercolor="#666666"
     borderopacity="1.0"
     inkscape:pageopacity="0"
     inkscape:pageshadow="2"
     inkscape:zoom="11.2"
     inkscape:cx="8.5296268"
     inkscape:cy="17.98394"
     inkscape:document-units="px"
     inkscape:current-layer="layer1"
     showgrid="false"
     units="px"
     inkscape:window-width="1366"
     inkscape:window-height="696"
     inkscape:window-x="0"
     inkscape:window-y="36"
     inkscape:window-maximized="1" />
  <metadata
     id="metadata7">
    <rdf:RDF>
      <cc:Work
         rdf:about="">
        <dc:format>image/svg+xml</dc:format>
        <dc:type
           rdf:resource="http://purl.org/dc/dcmitype/StillImage" />
        <dc:title />
      </cc:Work>
    </rdf:RDF>
  </metadata>
  <g
     inkscape:label="Layer 1"
     inkscape:groupmode="layer"
     id="layer1"
     transform="translate(0,-1020.3622)">
    <g
       transform="translate(-21.779381,172.04372)"
       style="display:inline"
       id="g12696"
       inkscape:export-filename="/home/spooky/Downloads/capitaine-cursors/draft.png"
       inkscape:export-xdpi="429.86514"
       inkscape:export-ydpi="429.86514">
      <path
         style="color:#000000;font-style:normal;font-variant:normal;font-weight:normal;font-stretch:normal;font-size:medium;line-height:normal;font-family:Sans;-inkscape-font-specification:Sans;text-indent:0;text-align:start;text-decoration:none;text-decoration-line:none;letter-spacing:normal;word-spacing:normal;text-transform:none;direction:ltr;block-progression:tb;writing-mode:lr-tb;baseline-shift:baseline;text-anchor:start;display:inline;overflow:visible;visibility:visible;opacity:0.2;fill:#000000;fill-opacity:1;fill-rule:nonzero;stroke:none;stroke-width:2;marker:none;filter:url(#filter7834);enable-background:accumulate"
         d="m 35.875,861.375 c -0.22185,0.024 -0.43465,0.12479 -0.59375,0.28125 l -3,3 c -0.82322,0.82322 -2.22028,1.55686 -3.40625,2.03125 -1.18597,0.47439 -2.125,0.71875 -2.125,0.71875 -0.42557,0.10992 -0.75019,0.52922 -0.75,0.96875 l 0,3 c 0,0.66667 -0.45458,2.16769 -0.9375,3.375 -0.48292,1.20731 -0.96875,2.1875 -0.96875,2.1875 -0.29604,0.60868 0.22941,1.44216 0.90625,1.4375 -0.005,0.67684 0.82882,1.20229 1.4375,0.90625 0,0 0.98019,-0.48583 2.1875,-0.96875 1.20731,-0.48292 2.70833,-0.9375 3.375,-0.9375 l 3,0 c 0.43953,1.9e-4 0.85883,-0.32443 0.96875,-0.75 0,0 0.24436,-0.93903 0.71875,-2.125 0.47439,-1.18597 1.20803,-2.58303 2.03125,-3.40625 l 3,-3 c 0.38424,-0.37177 0.38424,-1.06573 0,-1.4375 l -5,-5 C 36.50089,861.43964 36.17926,861.33242 35.875,861.375 Z"
         id="path7430"
         inkscape:connector-curvature="0" />
      <path
         style="color:#000000;font-style:normal;font-variant:normal;font-weight:normal;font-stretch:normal;font-size:medium;line-height:normal;font-family:Sans;-inkscape-font-specification:Sans;text-indent:0;text-align:start;text-decoration:none;text-decoration-line:none;letter-spacing:normal;word-spacing:normal;text-transform:none;direction:ltr;block-progression:tb;writing-mode:lr-tb;baseline-shift:baseline;text-anchor:start;display:inline;overflow:visible;visibility:visible;opacity:0.6;fill:#000000;fill-opacity:1;fill-rule:nonzero;stroke:none;stroke-width:2;marker:none;filter:url(#filter6888);enable-background:accumulate"
         d="m 33.5,869.375 c 0.28799,0 0.5,0.21201 0.5,0.5 0,0.28799 -0.21201,0.5 -0.5,0.5 -0.0483,0 -0.12202,-0.0213 -0.15625,-0.0312 -0.0916,-0.0236 -0.18665,-0.0342 -0.28125,-0.0312 -0.004,-0.10661 -0.0252,-0.21256 -0.0625,-0.3125 -0.0122,-0.0383 0,-0.0367 0,-0.125 0,-0.28799 0.21201,-0.5 0.5,-0.5 z"
         id="path7426"
         inkscape:connector-curvature="0" />
      <path
         style="color:#000000;font-style:normal;font-variant:normal;font-weight:normal;font-stretch:normal;font-size:medium;line-height:normal;font-family:Sans;-inkscape-font-specification:Sans;text-indent:0;text-align:start;text-decoration:none;text-decoration-line:none;letter-spacing:normal;word-spacing:normal;text-transform:none;direction:ltr;block-progression:tb;writing-mode:lr-tb;baseline-shift:baseline;text-anchor:start;display:inline;overflow:visible;visibility:visible;fill:#ffffff;fill-opacity:1;fill-rule:nonzero;stroke:none;stroke-width:2;marker:none;enable-background:accumulate"
         d="m 35.875,860.375 c -0.22185,0.024 -0.43465,0.12479 -0.59375,0.28125 l -3,3 c -0.82322,0.82322 -2.22028,1.55686 -3.40625,2.03125 -1.18597,0.47439 -2.125,0.71875 -2.125,0.71875 -0.42557,0.10992 -0.75019,0.52922 -0.75,0.96875 l 0,3 c 0,0.66667 -0.45458,2.16769 -0.9375,3.375 -0.48292,1.20731 -0.96875,2.1875 -0.96875,2.1875 -0.29604,0.60868 0.22941,1.44216 0.90625,1.4375 -0.005,0.67684 0.82882,1.20229 1.4375,0.90625 0,0 0.98019,-0.48583 2.1875,-0.96875 1.20731,-0.48292 2.70833,-0.9375 3.375,-0.9375 l 3,0 c 0.43953,1.9e-4 0.85883,-0.32443 0.96875,-0.75 0,0 0.24436,-0.93903 0.71875,-2.125 0.47439,-1.18597 1.20803,-2.58303 2.03125,-3.40625 l 3,-3 c 0.38424,-0.37177 0.38424,-1.06573 0,-1.4375 l -5,-5 C 36.50089,860.43964 36.17926,860.33242 35.875,860.375 Z"
         id="path4690-8"
         inkscape:connector-curvature="0"
         sodipodi:nodetypes="ccssccsscccssccsscccc" />
      <path
         style="fill:#282A33;fill-opacity:1;stroke:none"
         d="m 36,861.375 -3,3 c -2,2 -6,3 -6,3 l 0,3 c 0,2 -2,6 -2,6 l 7.0625,-7.0625 C 32.01678,869.16887 32,869.03378 32,868.875 c 0,-0.82843 0.67157,-1.5 1.5,-1.5 0.82843,0 1.5,0.67157 1.5,1.5 0,0.82843 -0.67157,1.5 -1.5,1.5 -0.14843,0 -0.3021,-0.0223 -0.4375,-0.0625 L 26,877.375 c 0,0 4,-2 6,-2 l 3,0 c 0,0 1,-4 3,-6 l 3,-3 z"
         id="path4690"
         inkscape:connector-curvature="0"
         sodipodi:nodetypes="cscsccssssccscscc" />
    </g>
  </g>
</svg>

<?xml version="1.0" encoding="UTF-8" standalone="no"?>
<!DOCTYPE svg PUBLIC "-//W3C//DTD SVG 1.1//EN" "http://www.w3.org/Graphics/SVG/1.1/DTD/svg11.dtd">
<svg width="100%" height="100%" viewBox="0 0 32 32" version="1.1" xmlns="http://www.w3.org/2000/svg" xmlns:xlink="http://www.w3.org/1999/xlink" xml:space="preserve" xmlns:serif="http://www.serif.com/" style="fill-rule:evenodd;clip-rule:evenodd;stroke-linejoin:round;stroke-miterlimit:2;">
    <g id="g12696" transform="matrix(1,0,0,1,-21.7794,-848.318)">
        <g id="Layer-1" serif:id="Layer 1">
            <g id="g126961" serif:id="g12696">
                <g id="path7430" transform="matrix(1,-0,-0,1,21.7794,848.318)">
                    <use xlink:href="#_Image1" x="0" y="9.403" width="24px" height="23px"/>
                </g>
                <path id="path4690-8" d="M35.875,860.375C35.653,860.399 35.44,860.5 35.281,860.656L32.281,863.656C31.458,864.479 30.061,865.213 28.875,865.688C27.689,866.162 26.75,866.406 26.75,866.406C26.324,866.516 26,866.935 26,867.375L26,870.375C26,871.042 25.545,872.543 25.063,873.75C24.58,874.957 24.094,875.938 24.094,875.938C23.798,876.546 24.323,877.38 25,877.375C24.995,878.052 25.829,878.577 26.438,878.281C26.438,878.281 27.418,877.795 28.625,877.313C29.832,876.83 31.333,876.375 32,876.375L35,876.375C35.44,876.375 35.859,876.051 35.969,875.625C35.969,875.625 36.213,874.686 36.688,873.5C37.162,872.314 37.896,870.917 38.719,870.094L41.719,867.094C42.103,866.722 42.103,866.028 41.719,865.656L36.719,860.656C36.501,860.44 36.179,860.332 35.875,860.375Z" style="fill:white;fill-rule:nonzero;"/>
                <path id="path4690" d="M36,861.375L33,864.375C31,866.375 27,867.375 27,867.375L27,870.375C27,872.375 25,876.375 25,876.375L32.063,869.313C32.017,869.169 32,869.034 32,868.875C32,868.047 32.672,867.375 33.5,867.375C34.328,867.375 35,868.047 35,868.875C35,869.703 34.328,870.375 33.5,870.375C33.352,870.375 33.198,870.353 33.063,870.313L26,877.375C26,877.375 30,875.375 32,875.375L35,875.375C35,875.375 36,871.375 38,869.375L41,866.375L36,861.375Z" style="fill-rule:nonzero;"/>
            </g>
        </g>
    </g>
    <defs>
        <image id="_Image1" width="24px" height="23px" xlink:href="data:image/png;base64,iVBORw0KGgoAAAANSUhEUgAAABgAAAAXCAYAAAARIY8tAAAACXBIWXMAAA7EAAAOxAGVKw4bAAABbElEQVRIiZWVWXLDMAxD4SXu/Y9bO5L7UUJ5ouU20QxHqwEKpOhJn7cpzc9PDr9zdsL4RD8kepfAoDN6A9fUd239AHxJpgAtYZ53JH8R+HZz2CrpEebvqqQjTFhrJCMCak3wDbbGfonbzAmjkWSCSb3eCzz/SgQGclyy/lXSSQJqba8NTu8f6mPAjHKwvd4ICG7gDeDu1zhDGQ1eJD3DiklIYEk2XT12YC0H07viW+63GzBbqLc1t9dLAq8g4TugaXSDrLnXsyQGfeo3TS0P0/QSA4PZnKajF+9Hdkjaww699D8tSyag0essRwbf1Qe4EeQXS6/viprLA8EtE2PTvDRozgSCs6gZ/NAVvKusziKCUx6Ce25p/gUnQSZROsysIYHBywg8E1ASphqlcVrukr71yprbHw5rEfPazaAljem9128JCLzH/EiS1GSuO967bSawV4rxNABlEPP89se/Jg9cuKQ+FpcaM+iH7QdFCscXvp7SVAAAAABJRU5ErkJggg=="/>
    </defs>
</svg>
